assets/icons/musiclibrary.svg

<svg xml:space="preserve" fill="#ebebeb" style="fill-rule:evenodd;clip-rule:evenodd;stroke-linejoin:round;stroke-miterlimit:2" viewBox="0 0 375 347" xmlns="http://www.w3.org/2000/svg"><path d="M1930 4778c-50-14-97-53-123-101l-22-42-3-939-2-939-88 2c-76 2-91-1-115-19l-27-21v-228c0-208 2-229 18-244 15-14 41-17 140-17h122v-99c0-96 1-100 26-120 34-26 54-26 88 0 25 20 26 24 26 120v99h2140v-95c0-88 2-98 25-120 30-30 54-31 89-4 25 20 26 24 26 120v99h124c174 0 166-13 166 267 0 214 0 214-25 238-22 23-32 25-115 25h-90v1866l-25 50c-26 52-70 88-126 104-46 14-2182 12-2229-2m2226-152c12-17 14-162 14-943v-923h-250v628c0 345-3 637-6 650-14 50-30 52-483 52h-419l-4 131c-3 129-3 131-31 155l-28 24h-364c-246 0-372-4-388-11-14-6-30-22-36-36-8-17-11-256-11-813v-790l-110 3-110 4v1858l21 18c20 16 82 17 1106 15 1060-3 1085-3 1099-22M2568 3508l-3-753h-270l-3 753-2 752h280zm292 752V2755h-150v1505zm915-315V2755l-382-3-383-2v1200l383-2zm625-1335v-240H1680v240z" style="fill:#fff;fill-rule:nonzero" transform="matrix(.1 0 0 -.1 -106 512)"/><path d="M3425 3689c-71-16-136-36-145-44-12-13-16-50-18-200-3-166-5-185-20-185-28 0-80-37-97-69-56-109 65-216 172-151 64 39 68 52 71 286l3 212 56 11c31 6 60 11 65 11 4 0 8-57 8-126v-126l-40-37c-56-50-62-90-22-131q30-30 60-30c37 0 90 35 119 79 22 32 23 43 22 220 0 270-11 312-78 310-14 0-84-14-156-30" style="fill:#fff;fill-rule:nonzero" transform="matrix(.1 0 0 -.1 -106 512)"/></svg>

<?xml version="1.0" encoding="UTF-8" standalone="no"?>
<!DOCTYPE svg PUBLIC "-//W3C//DTD SVG 1.1//EN" "http://www.w3.org/Graphics/SVG/1.1/DTD/svg11.dtd">
<svg width="100%" height="100%" viewBox="0 0 375 347" version="1.1" xmlns="http://www.w3.org/2000/svg" xmlns:xlink="http://www.w3.org/1999/xlink" xml:space="preserve" xmlns:serif="http://www.serif.com/" style="fill-rule:evenodd;clip-rule:evenodd;stroke-linejoin:round;stroke-miterlimit:2;">
    <g transform="matrix(1,0,0,1,-106,-512)">
        <g transform="matrix(0.1,0,0,-0.1,0,1024)">
            <g>
                <path d="M1930,4778C1880,4764 1833,4725 1807,4677L1785,4635L1782,3696L1780,2757L1692,2759C1616,2761 1601,2758 1577,2740L1550,2719L1550,2491C1550,2283 1552,2262 1568,2247C1583,2233 1609,2230 1708,2230L1830,2230L1830,2131C1830,2035 1831,2031 1856,2011C1890,1985 1910,1985 1944,2011C1969,2031 1970,2035 1970,2131L1970,2230L4110,2230L4110,2135C4110,2047 4112,2037 4135,2015C4165,1985 4189,1984 4224,2011C4249,2031 4250,2035 4250,2131L4250,2230L4374,2230C4548,2230 4540,2217 4540,2497C4540,2711 4540,2711 4515,2735C4493,2758 4483,2760 4400,2760L4310,2760L4310,4626L4285,4676C4259,4728 4215,4764 4159,4780C4113,4794 1977,4792 1930,4778ZM4156,4626C4168,4609 4170,4464 4170,3683L4170,2760L3920,2760L3920,3388C3920,3733 3917,4025 3914,4038C3900,4088 3884,4090 3431,4090L3012,4090L3008,4221C3005,4350 3005,4352 2977,4376L2949,4400L2585,4400C2339,4400 2213,4396 2197,4389C2183,4383 2167,4367 2161,4353C2153,4336 2150,4097 2150,3540L2150,2750L2040,2753L1930,2757L1930,4615L1951,4633C1971,4649 2033,4650 3057,4648C4117,4645 4142,4645 4156,4626ZM2568,3508L2565,2755L2295,2755L2292,3508L2290,4260L2570,4260L2568,3508ZM2860,4260L2860,2755L2710,2755L2710,4260L2860,4260ZM3775,3945L3775,2755L3393,2752L3010,2750L3010,3950L3393,3948L3775,3945ZM4400,2610L4400,2370L1680,2370L1680,2610L4400,2610Z" style="fill:white;fill-rule:nonzero;"/>
                <path d="M3425,3689C3354,3673 3289,3653 3280,3645C3268,3632 3264,3595 3262,3445C3259,3279 3257,3260 3242,3260C3214,3260 3162,3223 3145,3191C3089,3082 3210,2975 3317,3040C3381,3079 3385,3092 3388,3326L3391,3538L3447,3549C3478,3555 3507,3560 3512,3560C3516,3560 3520,3503 3520,3434L3520,3308L3480,3271C3424,3221 3418,3181 3458,3140C3478,3120 3498,3110 3518,3110C3555,3110 3608,3145 3637,3189C3659,3221 3660,3232 3659,3409C3659,3679 3648,3721 3581,3719C3567,3719 3497,3705 3425,3689Z" style="fill:white;fill-rule:nonzero;"/>
            </g>
        </g>
    </g>
</svg>
